X:1
T:sans.
T:sans.
T:Toby Fox
C:Toby Fox
%%score { 1 | 2 }
L:1/8
Q:1/4=128
M:4/4
K:B
V:1 bass nm="Piano" snm="Pno."
V:2 bass 
V:1
|: z2 .[G,DF].F, .[G,D^E] z .F,.^^F, | .G,.[DG].F{/E}.D z .[G,C].B,.[G,C] | %2
 z2 .[G,CF].B, .[G,C^E] z .D,.F, | .G,.[CG].F{/D}=D- D.C B,2 | z2 .[G,DF].F, .[G,D^E] z .F,.^^F, | %5
 .G,.[DG].F{/E}.D z .[G,C].B,.[G,C] | z2 .[G,CF].B, .[G,C^E] z .D,.F, | %7
 .G,{/^^F}.[CG].^F.D{/=D} .C.B,.C,.D, | z2 .[G,B,E].F, .[G,B,E] z .F,.^^F, | %9
 z .[A,D^^F].^^F, z z .C, B,,/^B,,/.C, | z2 .[G,C].B, .[G,C] z{/E,} .D,.^^C, | %11
 z{/^^G} .A.^^F.D .^^F,.[A,F].F.[A,F] :| %12
V:2
|: G,,2 z G,, D,,2 z2 | G,,2 z G,, D,,2 F,,2 | C,2 z C, G,,2 z2 | C,2 z C, G,,2 B,,2 | %4
 G,,2 z G,, D,,2 z2 | G,,2 z G,, D,,2 F,,2 | C,2 z C, G,,2 z2 | C,2 z C, G,,2 B,,2 | %8
 E,2 z E, B,,2 z2 | D,2 z{/E,} D, A,,2 z2 | E,2 z E, B,,2 z2 | [A,,D,]2 z A,, D,,2 ^^F,,2 :| %12

